!!!COM: Corelli, Arcangelo
!!!OPR: Sonata da camera
!!!OPS: 4
!!!ONM: 7
!!!OMV: 1
!!!OTL: Preludio
!!!OMD: Largo
**kern	**fb	**kern	**kern
*part3	*part3	*part2	*part1
*staff3	*	*staff2	*staff1
*I"Violone & Cembalo	*	*I"Violino II	*I"Violino I
*clefF4	*	*clefG2	*clefG2
*k[b-]	*	*k[b-]	*k[b-]
*F:	*	*F:	*F:
*M4/4	*	*M4/4	*M4/4
*met(c)	*	*met(c)	*met(c)
*MM56	*	*MM56	*MM56
=1	=1	=1	=1
4F	.	4a	4cc
4E	6	8.gL	16r
.	.	.	16ccLL
.	.	.	16dd
.	.	16ccJk	16eeJJ
4D	.	8aL	4ff
.	.	8fJ	.
4AA	6	[4ff	16r
.	.	.	16ffLL
.	.	.	16gg
.	.	.	16aaJJ
=2	=2	=2	=2
4BB-	6 5	4ff]	4gg
4C	.	4ee	16r
.	.	.	16ggLL
.	.	.	16aa
.	.	.	16bb-JJ
4F	.	4ff	8aaL
.	.	.	8ff
*C:	*	*C:	*C:
4E	6	8r	8ccc
.	.	8gg	8ccJ
=3	=3	=3	=3
4D	7	4aa	8ffL
.	.	.	(16ggL
.	.	.	16aaJJ)
4G	7 n	4bbn	8.ggL
.	.	.	16ffJk
4C	.	4ccc	8eeL
.	.	.	8ccJ
4BB-	6	8r	[4gg
.	.	8gg	.
=4	=4	=4	=4
4AA	7	4.cc	16ggLL]
.	.	.	16cc
.	.	.	16dd
.	.	.	16eeJJ
4D	7	.	4.ff
.	.	8ff	.
8GGL	7 n	8bn	.
8C	.	4gg	8eeL
8FF	9	.	8a
8FJ	8 6	[8ff	8ddJ
=5	=5	=5	=5
8GL	7 n	8ffL]	8bnL
8A	5	8eeJ	8ccJ
8F	6 5	4dd	8.ccL
8GJ	n	.	.
.	.	.	16bJk
4C	.	16eeLL	4cc
.	.	16cc	.
.	.	16dd	.
.	.	16eeJJ	.
*F:	*	*F:	*F:
4A	6	4ff	16r
.	.	.	16ffLL
.	.	.	16gg
.	.	.	16aaJJ
=6	=6	=6	=6
4B-	6 5	16r	4dd
.	.	16ggLL	.
.	.	16aa	.
.	.	16bb-JJ	.
4c	.	4ee	16r
.	.	.	16ggLL
.	.	.	16aa
.	.	.	16bb-XiJJ
4f	.	16r	4aa
.	.	16ffLL	.
.	.	16aa	.
.	.	16ffJJ	.
4e	6	8ggL	16r
.	.	.	16ccLL
.	.	[8cccJ	16ee
.	.	.	16ccJJ
=7	=7	=7	=7
4d	7	8ccc]	4ff
.	6	4bb-	.
4c	7	.	4ee
.	6	8.aaL	.
4B-	7	.	16ddLL
.	.	16ddL	16ff
.	6	16ee	16gg
.	.	16ffJJ	16aaJJ
*d:	*	*d:	*d:
4G	.	16ggLL	16bb-LL
.	.	16ff	16aa
.	.	16ee	16gg
.	.	16ddJJ	16ffJJ
=8	=8	=8	=8
8AL	#	8cc#X	8ee
8F	6	4ff	4aa
8G	9 7	.	.
8GGJ	8 6	16eeLL	16ggLL
.	.	16ddJJ	16ffJJ
8AAL	#	8cc#L	8eeL
8D	.	8ddJ	8ffJ
8A	5 4	8.ddL	8.eeL
8AAJ	#	.	.
.	.	16cc#Jk	16eeJk
=9	=9	=9	=9
8dL	.	4dd	4dd
8c	.	.	.
8B-	5	8r	8r
*F:	*	*F:	*F:
8AJ	6	8ccni	8ff
8B-L	6	(8ddL	(8ggL
8A	6	8ccJ)	8ffJ)
8B-	6	8r	8r
8AJ	6	8cc	8ff
=10	=10	=10	=10
8B-L	6	(8ddL	(8ggL
8A	6	8ccJ)	8ffJ)
8B-	6	8r	8r
8AJ	6	8cc	(16ffLL
.	.	.	16ccJJ)
8B-L	5	4.f	8ddL
8A	.	.	8cc
8G	.	.	8b-
8FJ	.	8f	8aJ
=11	=11	=11	=11
8CL	.	4.e	8gL
8BB-	.	.	8cJ
8AA	.	.	4.cc
8AJ	.	8cc	.
8dL	7	4.f	.
8D	.	.	(16b-LL
.	.	.	16aJJ)
8G	7	.	[4b-
8GGJ	.	8b-	.
=12	=12	=12	=12
8CL	7	8e	8b-L]
8F	5	4cc	8a
8BB-	9 5	.	8d
8B-J	8 6	4b-	8gJ
8cL	7	.	8eL
8F	.	8a	8fJ
8BB-	6 5	4g	8.fL
8CJ	.	.	.
.	.	.	16eJk
=13	=13	=13	=13
8FL	.	1f	1f
8B-	.	.	.
8A	6	.	.
8B-J	.	.	.
8FL	.	.	.
8B-	.	.	.
8A	6	.	.
8B-J	.	.	.
=14	=14	=14	=14
4BB-	4 2	4g	4e
8AAL	6	8ccL	2f
8BB-J	.	8ddJ	.
2C	6 4	4a	.
.	5 3	4g	4e
=15	=15	=15	=15
1FF	.	1f	1f
==	==	==	==
*-	*-	*-	*-
!!!system-decoration: [{s1,s2},s3]
!!!YEM: CC BY-NC-SA 4.0; CCARH; DCML
!!!RDF**kern: i = editorial accidental